Sources/FrostedUI/Resources/Icons.xcassets/star16.imageset/star-16.svg

<svg width="17" height="16" viewBox="0 0 17 16" fill="none" xmlns="http://www.w3.org/2000/svg" data-fui-icon="true">
  <path
    d="M6.27954 1.47949C7.04719 0.17374 8.96901 0.173643 9.73657 1.47949L9.80981 1.61426L11.1497 4.3291L14.2571 4.72559C15.873 4.93176 16.6666 6.96526 15.3635 8.16113L13.1233 10.2148L13.6838 13.1367C14.019 14.8858 12.1616 15.9944 10.7756 15.2676V15.2686L8.00806 13.8164L5.24048 15.2686C3.85464 15.995 1.99711 14.886 2.33228 13.1367L2.89185 10.2148L0.652588 8.16113C-0.650812 6.96519 0.142897 4.93158 1.75903 4.72559L4.86548 4.3291L6.2063 1.61426L6.27954 1.47949ZM8.46509 2.27832C8.28153 1.90694 7.73467 1.90703 7.55103 2.27832L5.9729 5.47656L5.94165 5.53027C5.86185 5.6505 5.7306 5.73188 5.58228 5.75098L2.50317 6.14258L1.94849 6.21387C1.52626 6.26787 1.35793 6.77193 1.66724 7.05566L4.32251 9.49219C4.44688 9.60639 4.50395 9.77429 4.4729 9.9375L3.92993 12.7695L3.80591 13.4189C3.73311 13.7989 4.11634 14.0965 4.4729 13.9707L4.54419 13.9395L7.76685 12.249C7.91714 12.1703 8.09901 12.1703 8.24927 12.249L11.4719 13.9395C11.8461 14.1355 12.2879 13.8242 12.2102 13.4189L11.5432 9.9375C11.5121 9.77421 11.5691 9.60642 11.6936 9.49219L14.3489 7.05566C14.6386 6.78973 14.5088 6.33062 14.1438 6.22949L14.0676 6.21387L10.4338 5.75098C10.2855 5.73195 10.1544 5.65052 10.0745 5.53027L10.0432 5.47656L8.46509 2.27832Z"
    fill="currentColor"
  />
</svg>

<svg xmlns="http://www.w3.org/2000/svg" width="17" height="16" fill="none" data-fui-icon="true" viewBox="0 0 17 16"><path fill="currentColor" d="M6.28 1.48c.767-1.306 2.689-1.306 3.457 0l.073.134 1.34 2.715 3.107.397c1.616.206 2.41 2.24 1.107 3.435l-2.24 2.054.56 2.922c.335 1.749-1.522 2.857-2.908 2.13v.002l-2.768-1.453L5.24 15.27c-1.385.726-3.243-.383-2.908-2.132l.56-2.922L.652 8.16C-.65 6.965.143 4.931 1.76 4.726l3.106-.397 1.341-2.715zm2.185.798a.514.514 0 0 0-.914 0L5.973 5.477l-.031.053a.5.5 0 0 1-.36.221l-3.079.392-.555.07a.486.486 0 0 0-.28.843l2.655 2.436a.48.48 0 0 1 .15.445L3.93 12.77l-.124.649c-.073.38.31.678.667.552l.071-.031 3.223-1.691a.52.52 0 0 1 .482 0l3.223 1.69c.374.197.816-.115.738-.52l-.667-3.482a.48.48 0 0 1 .15-.445l2.656-2.436a.484.484 0 0 0-.205-.827l-.076-.015-3.634-.463a.5.5 0 0 1-.36-.22l-.03-.054z"/></svg>
